X:165
T: Cow Behind the Fence
C: BB
M: 2/4
Q: 1/8=300
L: 1/8
R: polka
K: D
"D"A>d cd | "Bm"BA FA | "D"DA FA | "Bm"DA B2 |"D"A>d cd | "Bm"BA FD |\
"Em"E>G "D"FD | "A"A,C "D"D2 :|
"A"E>A ce | "A"ae cA | "A"E>A ce | "G"gf "E"e2 |\
"A"E>A ce | "A"ae ce | "D"f>e dA | "G"Bc "D"d2 :|
"D"dA FA|"D"dA FD|"A"A,>C EF|"G"GF "A"E2|"D"dA FA|"D"dA FD|"A"A,>C EG |\
"D" FE "D"D2 :|
